X:1
T:Pretty Nancy of Yarmouth
M:3/4
L:1/4
K:C
 d/2d/2| c d G| F B A/2B/2| c B A| G2 G/2G/2| G Bd/2-g/2| g g d/2e/2|\
 f ec/2-e/2| d2 G| B de/2-f/2| g g d/2d/2| g B G/2G/2| c- d2-| d2e/2-e/2|\
 d c A/2A/2| G A B| c BA/2-^F/2| G2||
